X:331
T:Winnie Hayes'
R:jig
H:Also played in Edor
D:John Williams
D:Sanctuary Sessions
Z:hn-jig-331
M:6/8
K:Ador
edB ~A3|BAA ABd|edB ~A3|BAG Bdd|edB ~A3|BAG A2a|age deg|age dBA:|
|:efg ~a3|bag a2g|e2a aea|~b3 gab|c'3 bd'b|age a2a|age deg|age dBA:|
